public/img/anti-feature-2.svg

<svg width="88" height="88" viewBox="0 0 88 88" fill="none" xmlns="http://www.w3.org/2000/svg">
<path d="M72.2148 63.438V65.7846C72.2148 66.4326 72.7396 66.958 73.3882 66.958C74.0367 66.958 74.5615 66.4326 74.5615 65.7846V63.438C74.5615 62.79 74.0367 62.2646 73.3882 62.2646C72.7396 62.2646 72.2148 62.79 72.2148 63.438Z" fill="black"/>
<path d="M73.3882 69.3047C72.7396 69.3047 72.2148 69.83 72.2148 70.478V72.8247C72.2148 73.4727 72.7396 73.998 73.3882 73.998C74.0367 73.998 74.5615 73.4727 74.5615 72.8247V70.478C74.5615 69.83 74.0367 69.3047 73.3882 69.3047Z" fill="black"/>
<path d="M71.0395 66.958H68.6929C68.0443 66.958 67.5195 67.4834 67.5195 68.1313C67.5195 68.7793 68.0443 69.3047 68.6929 69.3047H71.0395C71.6881 69.3047 72.2129 68.7793 72.2129 68.1313C72.2129 67.4834 71.6881 66.958 71.0395 66.958Z" fill="black"/>
<path d="M78.0786 66.958H75.7319C75.0834 66.958 74.5586 67.4834 74.5586 68.1313C74.5586 68.7793 75.0834 69.3047 75.7319 69.3047H78.0786C78.7272 69.3047 79.2519 68.7793 79.2519 68.1313C79.2519 67.4834 78.7272 66.958 78.0786 66.958Z" fill="black"/>
<path d="M68.4656 58.7294C68.4656 58.0366 67.9039 57.4749 67.2113 57.4749C66.5185 57.4749 65.957 58.0366 65.957 58.7294C65.957 59.4223 66.5185 59.9837 67.2113 59.9837C67.9036 59.9837 68.4656 59.4223 68.4656 58.7294Z" fill="black"/>
<path d="M68.1154 36.156C67.4463 22.0194 56.6513 10.5782 43.0046 9.54276C36.0631 9.01975 29.4276 11.2277 24.3195 15.7702C18.7817 20.6956 15.3875 28.0618 14.9774 36.0214L8.99491 47.7949C8.97085 47.843 8.94915 47.8929 8.93184 47.9433C8.62472 48.8312 8.70949 49.8104 9.16445 50.6297C9.60563 51.4255 10.3607 51.9978 11.2351 52.1984L15.7143 53.2286L16.9668 67.4295C17.1387 69.0886 18.4989 70.3393 20.1316 70.3393C20.1741 70.3393 20.2175 70.337 20.2601 70.3326L29.5986 69.3024V77.36C29.5986 78.0079 30.1234 78.5333 30.772 78.5333C31.4205 78.5333 31.9453 78.0079 31.9453 77.36V67.9927C31.9453 67.6591 31.8033 67.3412 31.5546 67.1188C31.3058 66.8953 30.9703 66.7912 30.6438 66.8261L20.0814 67.9909C19.6781 67.9651 19.3469 67.6295 19.3035 67.2059L17.9779 52.1732C17.9334 51.6666 17.5673 51.2463 17.0715 51.1321L11.7607 49.9113C11.4513 49.8403 11.2876 49.618 11.2175 49.4912C11.0961 49.273 11.0661 49.014 11.1315 48.7717L17.044 37.1352C17.2033 36.9398 17.2971 36.6969 17.3074 36.4414C17.6157 28.9908 20.7391 22.0957 25.8795 17.5238C30.5086 13.408 36.5195 11.404 42.8286 11.883C55.2952 12.829 65.1586 23.3121 65.7716 36.2669C66.0925 43.0708 63.8685 49.6089 59.5095 54.6771C57.7314 56.7442 56.7516 59.3956 56.7516 62.1427L56.7505 77.3594C56.7505 78.0076 57.2761 78.5333 57.9244 78.5333C58.5726 78.5333 59.0983 78.0076 59.0983 77.3594V62.1427C59.0983 59.9571 59.8762 57.8492 61.288 56.2074C66.0391 50.6822 68.4638 43.5615 68.1154 36.156Z" fill="black"/>
<path d="M52.7411 19.8339C52.2014 19.4746 51.4739 19.6207 51.1152 20.1604C50.7553 20.7001 50.9019 21.4282 51.4417 21.7875C56.3653 25.0641 59.3045 30.5456 59.3045 36.4513C59.3045 46.1559 51.4097 54.0513 41.7045 54.0513C31.9993 54.0513 24.1045 46.1559 24.1045 36.4513C24.1045 26.7466 31.9993 18.8513 41.7045 18.8513C43.8232 18.8513 45.8936 19.2232 47.8586 19.9571C48.467 20.1833 49.1431 19.8759 49.3678 19.2678C49.5946 18.6606 49.2866 17.985 48.6791 17.7583C46.4503 16.9264 44.1037 16.5049 41.7045 16.5049C30.7057 16.5049 21.7578 25.4527 21.7578 36.4515C21.7578 47.4504 30.7057 56.3982 41.7045 56.3982C52.7033 56.3982 61.6511 47.4504 61.6511 36.4515C61.6511 29.7586 58.3203 23.5463 52.7411 19.8339Z" fill="black"/>
<path d="M76.9072 20.0246C76.9072 18.0837 75.3282 16.5046 73.3872 16.5046C71.4462 16.5046 69.8672 18.0837 69.8672 20.0246C69.8672 21.9656 71.4462 23.5446 73.3872 23.5446C75.3282 23.5446 76.9072 21.9659 76.9072 20.0246ZM72.2139 20.0246C72.2139 19.3778 72.7398 18.8513 73.3872 18.8513C74.0346 18.8513 74.5605 19.3778 74.5605 20.0246C74.5605 20.6714 74.0346 21.198 73.3872 21.198C72.7398 21.198 72.2139 20.6714 72.2139 20.0246Z" fill="black"/>
<path d="M41.1366 22.5192L30.5766 28.3858C30.2041 28.5926 29.9727 28.9851 29.9727 29.4113V42.318C29.9727 42.7442 30.2041 43.1367 30.5766 43.3435L41.1366 49.2102C41.3132 49.3087 41.51 49.358 41.706 49.358C41.9019 49.358 42.0991 49.3087 42.2754 49.2102L52.8354 43.3435C53.2079 43.1367 53.4393 42.7442 53.4393 42.318V29.4113C53.4393 28.9851 53.2079 28.5926 52.8354 28.3858L42.2754 22.5192C41.9225 22.3221 41.4895 22.3221 41.1366 22.5192ZM41.706 24.8873L49.8504 29.4116L41.706 33.9357L33.5616 29.4116L41.706 24.8873ZM32.3193 31.4051L40.5327 35.9682V46.1906L32.3193 41.6278V31.4051ZM42.8793 46.1906V35.9682L51.0927 31.4051V41.6278L42.8793 46.1906Z" fill="black"/>
</svg>

<svg width="88" height="88" fill="none" xmlns="http://www.w3.org/2000/svg"><path d="M72.215 63.438v2.347a1.173 1.173 0 102.346 0v-2.347a1.173 1.173 0 10-2.346 0zm1.173 5.867c-.648 0-1.173.525-1.173 1.173v2.347a1.173 1.173 0 102.346 0v-2.347c0-.648-.524-1.173-1.173-1.173zm-2.348-2.347h-2.347a1.173 1.173 0 100 2.347h2.347a1.173 1.173 0 100-2.347zm7.039 0h-2.347a1.173 1.173 0 100 2.347h2.347a1.173 1.173 0 100-2.347zm-9.613-8.228a1.255 1.255 0 10-2.51 0 1.255 1.255 0 002.51 0zm-.351-22.574c-.669-14.137-11.464-25.578-25.11-26.613-6.942-.523-13.577 1.685-18.686 6.227-5.537 4.926-8.931 12.292-9.342 20.251L8.995 47.795a1.22 1.22 0 00-.063.148 3.31 3.31 0 00.232 2.687 3.194 3.194 0 002.071 1.568l4.48 1.03 1.252 14.202c.172 1.659 1.532 2.91 3.165 2.91.042 0 .085-.003.128-.007l9.339-1.03v8.057a1.173 1.173 0 102.346 0v-9.367a1.172 1.172 0 00-1.301-1.167L20.08 67.991c-.403-.026-.734-.362-.777-.785l-1.326-15.033a1.174 1.174 0 00-.907-1.04l-5.31-1.222a.839.839 0 01-.543-.42.965.965 0 01-.086-.72l5.912-11.636c.16-.195.253-.438.263-.694.309-7.45 3.432-14.345 8.573-18.917 4.629-4.116 10.64-6.12 16.949-5.641 12.466.946 22.33 11.43 22.943 24.384.32 6.804-1.904 13.342-6.263 18.41a11.449 11.449 0 00-2.757 7.466l-.002 15.216a1.174 1.174 0 002.348 0V62.143c0-2.186.778-4.294 2.19-5.936 4.751-5.525 7.176-12.645 6.827-20.051z" fill="#000"/><path d="M52.741 19.834a1.172 1.172 0 10-1.3 1.954 17.58 17.58 0 017.863 14.663c0 9.705-7.894 17.6-17.6 17.6-9.705 0-17.6-7.895-17.6-17.6 0-9.704 7.895-17.6 17.6-17.6 2.12 0 4.19.372 6.155 1.106a1.173 1.173 0 10.82-2.199 19.877 19.877 0 00-6.974-1.253c-11 0-19.947 8.948-19.947 19.947 0 10.998 8.948 19.946 19.947 19.946 10.998 0 19.946-8.948 19.946-19.947a19.92 19.92 0 00-8.91-16.617zm24.166.191a3.524 3.524 0 00-3.52-3.52 3.524 3.524 0 00-3.52 3.52 3.524 3.524 0 003.52 3.52 3.524 3.524 0 003.52-3.52zm-4.693 0a1.174 1.174 0 012.347 0 1.175 1.175 0 01-2.347 0z" fill="#000"/><path d="M41.137 22.52l-10.56 5.866c-.373.207-.604.6-.604 1.025v12.907c0 .426.231.819.604 1.026l10.56 5.866a1.17 1.17 0 001.138 0l10.56-5.867a1.17 1.17 0 00.604-1.025V29.411c0-.426-.231-.818-.604-1.025l-10.56-5.867a1.17 1.17 0 00-1.138 0zm.569 2.367l8.144 4.525-8.144 4.524-8.144-4.524 8.144-4.525zm-9.387 6.518l8.214 4.563v10.223l-8.214-4.563V31.405zm10.56 14.786V35.968l8.214-4.563v10.223l-8.214 4.563z" fill="#000"/></svg>
